images/double-checkmark.svg

<svg width="20" height="20" viewBox="0 0 20 20" fill="none" xmlns="http://www.w3.org/2000/svg">
<path d="M10.1359 0.250051C4.65243 0.175989 0.175867 4.65255 0.249929 10.136C0.323054 15.3949 4.60509 19.6769 9.86399 19.7501C15.3484 19.8251 19.824 15.3485 19.749 9.86505C19.6768 4.60521 15.3948 0.323176 10.1359 0.250051ZM9.34884 9.27208L11.7652 6.50646C11.8962 6.35665 12.0812 6.26499 12.2797 6.25162C12.4782 6.23826 12.6739 6.3043 12.8237 6.43521C12.9735 6.56612 13.0652 6.75117 13.0785 6.94967C13.0919 7.14817 13.0258 7.34384 12.8949 7.49365L10.4785 10.2593C10.4137 10.3334 10.3349 10.3941 10.2466 10.4379C10.1584 10.4816 10.0623 10.5075 9.96406 10.5141C9.86578 10.5207 9.76715 10.5079 9.67381 10.4764C9.58048 10.4449 9.49426 10.3953 9.42009 10.3305C9.34591 10.2657 9.28523 10.1869 9.2415 10.0986C9.19778 10.0104 9.17187 9.91434 9.16525 9.81606C9.15864 9.71777 9.17144 9.61915 9.20294 9.52581C9.23444 9.43248 9.28402 9.34626 9.34884 9.27208ZM7.52727 13.5307C7.38664 13.6712 7.19594 13.7502 6.99712 13.7502C6.79829 13.7502 6.6076 13.6712 6.46696 13.5307L4.2193 11.2807C4.14968 11.211 4.09447 11.1283 4.05681 11.0373C4.01916 10.9462 3.9998 10.8487 3.99984 10.7502C3.99989 10.6517 4.01933 10.5542 4.05707 10.4632C4.0948 10.3722 4.15009 10.2895 4.21977 10.2199C4.28946 10.1503 4.37217 10.0951 4.46319 10.0574C4.55421 10.0197 4.65176 10.0004 4.75026 10.0004C4.84876 10.0005 4.94629 10.0199 5.03728 10.0577C5.12827 10.0954 5.21093 10.1507 5.28055 10.2204L7.53055 12.4704C7.67067 12.6114 7.74903 12.8024 7.74841 13.0012C7.7478 13.2 7.66826 13.3905 7.52727 13.5307ZM15.8148 7.49365L10.5704 13.4936C10.5028 13.5711 10.4201 13.6338 10.3273 13.6779C10.2345 13.722 10.1336 13.7466 10.0309 13.7501H10.0056C9.907 13.7501 9.80941 13.7307 9.71836 13.6929C9.62732 13.6552 9.54459 13.5999 9.47493 13.5302L7.22774 11.2802C7.08714 11.1395 7.00819 10.9487 7.00828 10.7497C7.00837 10.5508 7.08748 10.36 7.22821 10.2194C7.36894 10.0788 7.55976 9.99988 7.7587 9.99997C7.95763 10.0001 8.14839 10.0792 8.28899 10.2199L9.68587 11.6182C9.72218 11.6545 9.76557 11.683 9.81334 11.7018C9.86111 11.7207 9.91225 11.7296 9.96358 11.7278C10.0149 11.7261 10.0654 11.7139 10.1118 11.6919C10.1582 11.6699 10.1996 11.6386 10.2334 11.5999L14.6865 6.50646C14.8174 6.35665 15.0025 6.26499 15.201 6.25162C15.3994 6.23826 15.5951 6.3043 15.7449 6.43521C15.8947 6.56612 15.9864 6.75117 15.9998 6.94967C16.0131 7.14817 15.9471 7.34384 15.8162 7.49365H15.8148Z" fill="#85D1A0"/>
</svg>

<svg xmlns="http://www.w3.org/2000/svg" width="20" height="20" fill="none" xmlns:v="https://vecta.io/nano"><path d="M10.136.25C4.652.176.176 4.653.25 10.136a9.78 9.78 0 0 0 9.614 9.614c5.484.075 9.96-4.402 9.885-9.885A9.78 9.78 0 0 0 10.136.25zm-.787 9.022l2.416-2.766a.75.75 0 0 1 1.059-.071.75.75 0 0 1 .071 1.058l-2.416 2.766a.75.75 0 0 1-.514.255.75.75 0 0 1-.544-.184.75.75 0 0 1-.255-.514.75.75 0 0 1 .184-.544zm-1.822 4.259a.75.75 0 0 1-1.06 0l-2.248-2.25A.75.75 0 0 1 4 10.75a.75.75 0 0 1 .22-.53.75.75 0 0 1 .53-.22.75.75 0 0 1 .53.22l2.25 2.25a.75.75 0 0 1-.003 1.06zm8.288-6.037l-5.244 6a.75.75 0 0 1-.539.256h-.025a.75.75 0 0 1-.531-.22l-2.247-2.25a.75.75 0 0 1 0-1.061.75.75 0 0 1 1.061.001l1.397 1.398c.036.036.08.065.127.084s.099.028.15.026.102-.014.148-.036.088-.053.122-.092l4.453-5.093a.75.75 0 0 1 1.058-.071.75.75 0 0 1 .071 1.058h-.001z" fill="#85d1a0"/></svg>
